X:31
T:Tabhair Do'm Do Lámh (waltz)
I:titlefont Times-Roman 24
I:partsfont Times-Roman 20
R:waltz
M:3/4
L:1/8
O:Ruairi Dall O'Cathain (16.11.2015/NS)
K:Gmaj
P:A1
D2|:"C"E2 G2 G2|"G"G4 D2|"C"E2 G2 G2|"G"G4 D2|"C"E2 G2 G2|"G" G2 A2 B2|"Hm"B2 e2 d2|"Em"B4 AG|
"Am"A2 A2 ed| "Hm"B2 B2 dB|"Am"A2 AB AG| "C/E"E4 D2|
P:A2
"C"E2 G2 G2| "G"G4 D2|"C"E2 G2 G2| "G"G4 D2|"C"E2 G2 G2| "G"G2 A2 B2|"D"D2 DB AB| "G"G4 D2|
"C"E2 G2 G2| "G"G2 A2 B2|"Hm"B2 e2 d2|"Em" B4 AG|"Am"A2 A2 ed| "Em"B2 B2 dB|"Am"A2 A2 A/B/d|"C" e4 dB||
P:B
"G".d2 d2 e2| "Em"g4 ed|"C".e2 e2 g2| "D"a4 ge|"G".g2 g2 de|"Em" .g2 g2 de|"C".g2 g2 "D"a2|"G" b6|
P:C
"G" .b2 .b2 .b2| b4 ag|"D"a2 ag ab| a4 gf|"C"e2 e2 ge |"G/H" .d2 d2 gd|"G"B2 B2 dB|"D" A4 BA|
"G"G2 G2 A/B/d|"F" =f4 ed|"C"e2 e2 g2|"D9" e4 dB|"G".d2 d2 g2|"Em" B2 B2 dB|"D"A2 Ac BA|"G" G4 D2:|
"C"E2 G2 G2|"G" G4 D2|"C"E2 G2 G2|"G" G6 |]

